packages/icons/src/svg/upload.svg

<svg width="24" height="24" viewBox="0 0 24 24" fill="none" xmlns="http://www.w3.org/2000/svg">
<path d="M12.3752 3.0625C12.2585 3.02083 12.1335 3 12.0002 3C11.8669 3 11.7419 3.02083 11.6252 3.0625C11.5085 3.10417 11.4002 3.175 11.3002 3.275L6.7002 7.875C6.51686 8.05833 6.4252 8.29167 6.4252 8.575C6.4252 8.85833 6.51686 9.09167 6.7002 9.275C6.88353 9.45833 7.12103 9.55417 7.4127 9.5625C7.70436 9.57083 7.94186 9.48333 8.1252 9.3L11.0002 6.425L11.0002 15.575C11.0002 15.8583 11.096 16.0958 11.2877 16.2875C11.4794 16.4792 11.7169 16.575 12.0002 16.575C12.2835 16.575 12.521 16.4792 12.7127 16.2875C12.9044 16.0958 13.0002 15.8583 13.0002 15.575L13.0002 6.425L15.8752 9.3C16.0585 9.48333 16.296 9.57083 16.5877 9.5625C16.8794 9.55417 17.1169 9.45833 17.3002 9.275C17.4835 9.09167 17.5752 8.85833 17.5752 8.575C17.5752 8.29167 17.4835 8.05833 17.3002 7.875L12.7002 3.275C12.6002 3.175 12.4919 3.10417 12.3752 3.0625Z" fill="#132930"/>
<path d="M3.5875 20.4125C3.97917 20.8042 4.45 21 5 21H19C19.55 21 20.0208 20.8042 20.4125 20.4125C20.8042 20.0209 21 19.55 21 19V17C21 16.7167 20.9042 16.4792 20.7125 16.2875C20.5208 16.0959 20.2833 16 20 16C19.7167 16 19.4792 16.0959 19.2875 16.2875C19.0958 16.4792 19 16.7167 19 17V19H5V17C5 16.7167 4.90417 16.4792 4.7125 16.2875C4.52083 16.0959 4.28333 16 4 16C3.71667 16 3.47917 16.0959 3.2875 16.2875C3.09583 16.4792 3 16.7167 3 17V19C3 19.55 3.19583 20.0209 3.5875 20.4125Z" fill="#132930"/>
</svg>

<svg width="24" height="24" viewBox="0 0 24 24" fill="none" xmlns="http://www.w3.org/2000/svg">
<path d="M12.375 3.063A1.107 1.107 0 0 0 12 3c-.133 0-.258.02-.375.063a.877.877 0 0 0-.325.212l-4.6 4.6a.948.948 0 0 0-.275.7c0 .283.092.517.275.7.184.183.421.28.713.287.291.009.529-.079.712-.262L11 6.425v9.15c0 .283.096.52.288.713.191.191.429.287.712.287.284 0 .521-.096.713-.287a.968.968 0 0 0 .287-.713v-9.15L15.875 9.3c.183.183.421.27.713.262.291-.008.529-.104.712-.287a.948.948 0 0 0 .275-.7.948.948 0 0 0-.275-.7l-4.6-4.6a.877.877 0 0 0-.325-.212Z" fill="#132930"/>
<path d="M3.587 20.413C3.98 20.803 4.45 21 5 21h14c.55 0 1.02-.196 1.413-.587.391-.392.587-.863.587-1.413v-2a.968.968 0 0 0-.288-.712A.968.968 0 0 0 20 16a.968.968 0 0 0-.712.288A.968.968 0 0 0 19 17v2H5v-2a.968.968 0 0 0-.287-.712A.968.968 0 0 0 4 16a.968.968 0 0 0-.712.288A.968.968 0 0 0 3 17v2c0 .55.196 1.02.587 1.413Z" fill="#132930"/>
</svg>
